icon-themes/breeze_svg/cmd/lc_calloutshapes.line-callout-1.svg

<svg viewBox="0 0 24 24" xmlns="http://www.w3.org/2000/svg"><path d="m10 4v12h10v-12zm-3.8125 5c-.7057923 3.606692-1.4355008 7.208754-2.15625 10.8125l-.03125.1875h2c.8177316-3.653073 1.3281877-7.378363 2.28125-11z" fill="#4d4d4d"/></svg>

<svg xmlns="http://www.w3.org/2000/svg" viewBox="0 0 24 24">
 <path 
     style="fill:#4d4d4d" 
     d="M 10 4 L 10 16 L 20 16 L 20 4 L 10 4 z M 6.1875 9 C 5.4817077 12.606692 4.7519992 16.208754 4.03125 19.8125 L 4 20 L 6 20 C 6.8177316 16.346927 7.3281877 12.621637 8.28125 9 L 6.1875 9 z "
     />
 </svg>
